X: 3
T: Level3
R: reel
M: 4/4
L: 1/8
K: Ador
|:"A" ag ef gg fg |"C" ag ef gf ee |"E" ag ef gg fe |"D" ff ge fg aa :|
|:"A" ag ab aa ge |"C" gg ge fg aa |"D" ag ab aa ge |"E" gg fg ee ee :|

